X: 12908
T: Fiach
R: jig
M: 6/8
K: Dmajor
|:A2f efe|dBA dBA|A2f efe|dBA d3|A2f efe|dBA d2f|g3 fae|fce d2 e:|
|:f2f edB|dBA dBA|f2f edB|dBA A3|f2f edB|dBA dBA|g2g fae|fce d2 e:|
|:f2b afe|fdB dBA|f2b afe|fce d2e|f2b afe|fdB dBA|g3 fae|fce d3:|

